ozkannceylan/mujoco-kinematics-lab/lab-2-Ur5e-robotics-lab/docs-turkish/b1_quintic_joint_traj.csv
time,q1,q2,q3,q4,q5,q6,qd1,qd2,qd3,qd4,qd5,qd6,qdd1,qdd2,qdd3,qdd4,qdd5,qdd6
0.000000,0.000000,-1.256637,1.653470,-1.963495,1.570796,0.000000,0.000000,0.000000,0.000000,0.000000,0.000000,0.000000,0.000000,0.000000,0.000000,0.000000,0.000000,0.000000
0.025000,0.000013,-1.256634,1.653461,-1.963485,1.570785,0.000012,0.001600,0.000358,-0.001036,0.001288,-0.001305,0.001371,0.126369,0.028277,-0.081864,0.101726,-0.103044,0.108316
0.050000,0.000105,-1.256613,1.653402,-1.963411,1.570710,0.000090,0.006238,0.001396,-0.004041,0.005022,-0.005087,0.005347,0.243141,0.054407,-0.157510,0.195727,-0.198263,0.208406
0.075000,0.000349,-1.256559,1.653244,-1.963215,1.570512,0.000299,0.013679,0.003061,-0.008861,0.011011,-0.011154,0.011725,0.350561,0.078444,-0.227098,0.282199,-0.285855,0.300480
0.100000,0.000811,-1.256456,1.652945,-1.962843,1.570135,0.000695,0.023691,0.005301,-0.015347,0.019071,-0.019318,0.020306,0.448875,0.100444,-0.290788,0.361341,-0.366023,0.384750
0.125000,0.001553,-1.256290,1.652464,-1.962245,1.569530,0.001331,0.036049,0.008067,-0.023353,0.029019,-0.029395,0.030899,0.538330,0.120461,-0.348738,0.433352,-0.438967,0.461426
0.150000,0.002631,-1.256048,1.651766,-1.961378,1.568651,0.002255,0.050535,0.011308,-0.032738,0.040681,-0.041208,0.043316,0.619172,0.138550,-0.401108,0.498429,-0.504887,0.530719
0.175000,0.004096,-1.255721,1.650817,-1.960199,1.567457,0.003510,0.066938,0.014978,-0.043363,0.053884,-0.054583,0.057375,0.691646,0.154768,-0.448058,0.556771,-0.563985,0.592840
0.200000,0.005992,-1.255296,1.649588,-1.958672,1.565910,0.005136,0.085050,0.019031,-0.055097,0.068465,-0.069352,0.072900,0.756000,0.169168,-0.489747,0.608575,-0.616460,0.648000
0.225000,0.008361,-1.254766,1.648054,-1.956765,1.563979,0.007166,0.104672,0.023422,-0.067808,0.084260,-0.085352,0.089719,0.812479,0.181806,-0.526335,0.654040,-0.662514,0.696410
0.250000,0.011237,-1.254123,1.646191,-1.954450,1.561634,0.009631,0.125610,0.028107,-0.081372,0.101116,-0.102426,0.107666,0.861328,0.192737,-0.557980,0.693363,-0.702347,0.738281
0.275000,0.014651,-1.253359,1.643979,-1.951702,1.558850,0.012558,0.147677,0.033045,-0.095667,0.118879,-0.120419,0.126580,0.902795,0.202016,-0.584843,0.726744,-0.736160,0.773824
0.300000,0.018628,-1.252469,1.641402,-1.948500,1.555606,0.015967,0.170691,0.038195,-0.110576,0.137405,-0.139185,0.146306,0.937125,0.209698,-0.607083,0.754379,-0.764154,0.803250
0.325000,0.023191,-1.251448,1.638446,-1.944826,1.551885,0.019878,0.194476,0.043517,-0.125984,0.156552,-0.158580,0.166694,0.964564,0.215838,-0.624858,0.776468,-0.786528,0.826770
0.350000,0.028357,-1.250292,1.635100,-1.940668,1.547673,0.024306,0.218863,0.048974,-0.141783,0.176184,-0.178466,0.187597,0.985359,0.220491,-0.638330,0.793208,-0.803485,0.844594
0.375000,0.034138,-1.248998,1.631355,-1.936014,1.542959,0.029261,0.243690,0.054530,-0.157866,0.196169,-0.198711,0.208878,0.999756,0.223713,-0.647656,0.804797,-0.815224,0.856934
0.400000,0.040544,-1.247565,1.627205,-1.930858,1.537736,0.034752,0.268800,0.060149,-0.174132,0.216382,-0.219186,0.230400,1.008000,0.225557,-0.652997,0.811433,-0.821947,0.864000
0.425000,0.047579,-1.245990,1.622647,-1.925194,1.531999,0.040782,0.294041,0.065797,-0.190484,0.236701,-0.239768,0.252035,1.010338,0.226081,-0.654511,0.813315,-0.823853,0.866004
0.450000,0.055246,-1.244275,1.617681,-1.919023,1.525747,0.047354,0.319270,0.071442,-0.206827,0.257010,-0.260340,0.273660,1.007016,0.225337,-0.652359,0.810641,-0.821144,0.863156
0.475000,0.063542,-1.242419,1.612307,-1.912345,1.518983,0.054464,0.344347,0.077054,-0.223073,0.277197,-0.280789,0.295155,0.998279,0.223382,-0.646699,0.803608,-0.814020,0.855668
0.500000,0.072461,-1.240423,1.606529,-1.905165,1.511710,0.062109,0.369141,0.082602,-0.239134,0.297156,-0.301006,0.316406,0.984375,0.220271,-0.637692,0.792415,-0.802682,0.843750
0.525000,0.081995,-1.238289,1.600352,-1.897490,1.503936,0.070282,0.393525,0.088058,-0.254931,0.316785,-0.320889,0.337307,0.965549,0.216058,-0.625496,0.777260,-0.787331,0.827613
0.550000,0.092133,-1.236021,1.593785,-1.889329,1.495669,0.078971,0.417379,0.093396,-0.270384,0.335987,-0.340341,0.357754,0.942047,0.210799,-0.610271,0.758342,-0.768167,0.807469
0.575000,0.102859,-1.233621,1.586836,-1.880695,1.486923,0.088165,0.440590,0.098590,-0.285420,0.354672,-0.359267,0.377649,0.914115,0.204549,-0.592177,0.735857,-0.745391,0.783527
0.600000,0.114156,-1.231093,1.579518,-1.871601,1.477711,0.097848,0.463050,0.103615,-0.299970,0.372752,-0.377582,0.396900,0.882000,0.197363,-0.571372,0.710004,-0.719203,0.756000
0.625000,0.126004,-1.228441,1.571843,-1.862063,1.468050,0.108004,0.484657,0.108450,-0.313968,0.390146,-0.395201,0.415421,0.845947,0.189295,-0.548017,0.680982,-0.689805,0.725098
0.650000,0.138381,-1.225672,1.563825,-1.852100,1.457957,0.118612,0.505317,0.113073,-0.327351,0.406777,-0.412047,0.433129,0.806203,0.180402,-0.522270,0.648988,-0.657397,0.691031
0.675000,0.151261,-1.222790,1.555481,-1.841731,1.447454,0.129653,0.524939,0.117464,-0.340063,0.422572,-0.428047,0.449947,0.763014,0.170737,-0.494291,0.614221,-0.622179,0.654012
0.700000,0.164619,-1.219801,1.546828,-1.830979,1.436563,0.141102,0.543441,0.121604,-0.352048,0.437466,-0.443134,0.465806,0.716625,0.160357,-0.464240,0.576878,-0.584353,0.614250
0.725000,0.178423,-1.216712,1.537885,-1.819866,1.425306,0.152934,0.560745,0.125476,-0.363259,0.451396,-0.457245,0.480639,0.667283,0.149316,-0.432275,0.537159,-0.544118,0.571957
0.750000,0.192645,-1.213529,1.528672,-1.808417,1.413709,0.165125,0.576782,0.129065,-0.373648,0.464306,-0.470322,0.494385,0.615234,0.137669,-0.398557,0.495260,-0.501676,0.527344
0.775000,0.207251,-1.210261,1.519209,-1.796659,1.401799,0.177644,0.591487,0.132355,-0.383173,0.476143,-0.482312,0.506989,0.560725,0.125472,-0.363245,0.451380,-0.457228,0.480621
0.800000,0.222208,-1.206914,1.509520,-1.784619,1.389603,0.190464,0.604800,0.135334,-0.391798,0.486860,-0.493168,0.518400,0.504000,0.112779,-0.326498,0.405717,-0.410973,0.432000
0.825000,0.237479,-1.203497,1.499627,-1.772326,1.377150,0.203554,0.616670,0.137991,-0.399488,0.496415,-0.502847,0.528574,0.445307,0.099645,-0.288476,0.358469,-0.363113,0.381691
0.850000,0.253029,-1.200017,1.489554,-1.759809,1.364471,0.216882,0.627051,0.140313,-0.406212,0.504772,-0.511312,0.537472,0.384891,0.086126,-0.249338,0.309834,-0.313849,0.329906
0.875000,0.268819,-1.196484,1.479325,-1.747098,1.351595,0.230416,0.635902,0.142294,-0.411946,0.511897,-0.518530,0.545059,0.322998,0.072276,-0.209243,0.260011,-0.263380,0.276855
0.900000,0.284811,-1.192906,1.468965,-1.734224,1.338555,0.244124,0.643191,0.143925,-0.416668,0.517764,-0.524473,0.551306,0.259875,0.058152,-0.168351,0.209198,-0.211908,0.222750
0.925000,0.300966,-1.189291,1.458500,-1.721220,1.325382,0.257970,0.648888,0.145200,-0.420359,0.522351,-0.529118,0.556190,0.195768,0.043806,-0.126821,0.157592,-0.159633,0.167801
0.950000,0.317242,-1.185649,1.447956,-1.708118,1.312110,0.271922,0.652973,0.146114,-0.423005,0.525639,-0.532449,0.559691,0.130922,0.029296,-0.084813,0.105391,-0.106757,0.112219
0.975000,0.333601,-1.181988,1.437359,-1.694949,1.298771,0.285943,0.655430,0.146664,-0.424597,0.527617,-0.534453,0.561797,0.065584,0.014676,-0.042486,0.052795,-0.053479,0.056215
1.000000,0.350000,-1.178319,1.426735,-1.681748,1.285398,0.300000,0.656250,0.146847,-0.425128,0.528277,-0.535122,0.562500,-0.000000,-0.000000,-0.000000,-0.000000,0.000000,0.000000
1.025000,0.366399,-1.174649,1.416111,-1.668546,1.272026,0.314057,0.655430,0.146664,-0.424597,0.527617,-0.534453,0.561797,-0.065584,-0.014676,0.042486,-0.052795,0.053479,-0.056215
1.050000,0.382758,-1.170988,1.405514,-1.655378,1.258687,0.328078,0.652973,0.146114,-0.423005,0.525639,-0.532449,0.559691,-0.130922,-0.029296,0.084813,-0.105391,0.106757,-0.112219
1.075000,0.399034,-1.167346,1.394970,-1.642275,1.245414,0.342030,0.648888,0.145200,-0.420359,0.522351,-0.529118,0.556190,-0.195768,-0.043806,0.126821,-0.157592,0.159633,-0.167801
1.100000,0.415189,-1.163731,1.384505,-1.629271,1.232242,0.355876,0.643191,0.143925,-0.416668,0.517764,-0.524473,0.551306,-0.259875,-0.058152,0.168351,-0.209198,0.211908,-0.222750
1.125000,0.431181,-1.160153,1.374145,-1.616398,1.219201,0.369584,0.635902,0.142294,-0.411946,0.511897,-0.518530,0.545059,-0.322998,-0.072276,0.209243,-0.260011,0.263380,-0.276855
1.150000,0.446971,-1.156620,1.363916,-1.603687,1.206326,0.383118,0.627051,0.140313,-0.406212,0.504772,-0.511312,0.537472,-0.384891,-0.086126,0.249338,-0.309834,0.313849,-0.329906
1.175000,0.462521,-1.153140,1.353843,-1.591169,1.193646,0.396446,0.616670,0.137991,-0.399488,0.496415,-0.502847,0.528574,-0.445307,-0.099645,0.288476,-0.358469,0.363113,-0.381691
1.200000,0.477792,-1.149723,1.343949,-1.578876,1.181194,0.409536,0.604800,0.135334,-0.391798,0.486860,-0.493168,0.518400,-0.504000,-0.112779,0.326498,-0.405717,0.410973,-0.432000
1.225000,0.492749,-1.146376,1.334260,-1.566836,1.168998,0.422356,0.591487,0.132355,-0.383173,0.476143,-0.482312,0.506989,-0.560725,-0.125472,0.363245,-0.451380,0.457228,-0.480621
1.250000,0.507355,-1.143108,1.324798,-1.555078,1.157087,0.434875,0.576782,0.129065,-0.373648,0.464306,-0.470322,0.494385,-0.615234,-0.137669,0.398557,-0.495260,0.501676,-0.527344
1.275000,0.521577,-1.139925,1.315585,-1.543630,1.145491,0.447066,0.560745,0.125476,-0.363259,0.451396,-0.457245,0.480639,-0.667283,-0.149316,0.432275,-0.537159,0.544118,-0.571957
1.300000,0.535381,-1.136836,1.306642,-1.532517,1.134234,0.458898,0.543441,0.121604,-0.352048,0.437466,-0.443134,0.465806,-0.716625,-0.160357,0.464240,-0.576878,0.584353,-0.614250
1.325000,0.548739,-1.133847,1.297989,-1.521764,1.123342,0.470347,0.524939,0.117464,-0.340063,0.422572,-0.428047,0.449947,-0.763014,-0.170737,0.494291,-0.614221,0.622179,-0.654012
1.350000,0.561619,-1.130965,1.289645,-1.511396,1.112839,0.481388,0.505317,0.113073,-0.327351,0.406777,-0.412047,0.433129,-0.806203,-0.180402,0.522270,-0.648988,0.657397,-0.691031
1.375000,0.573996,-1.128196,1.281627,-1.501433,1.102747,0.491996,0.484657,0.108450,-0.313968,0.390146,-0.395201,0.415421,-0.845947,-0.189295,0.548017,-0.680982,0.689805,-0.725098
1.400000,0.585844,-1.125544,1.273952,-1.491895,1.093085,0.502152,0.463050,0.103615,-0.299970,0.372752,-0.377582,0.396900,-0.882000,-0.197363,0.571372,-0.710004,0.719203,-0.756000
1.425000,0.597141,-1.123016,1.266633,-1.482801,1.083873,0.511835,0.440590,0.098590,-0.285420,0.354672,-0.359267,0.377649,-0.914115,-0.204549,0.592177,-0.735857,0.745391,-0.783527
1.450000,0.607867,-1.120616,1.259685,-1.474166,1.075127,0.521029,0.417379,0.093396,-0.270384,0.335987,-0.340341,0.357754,-0.942047,-0.210799,0.610271,-0.758342,0.768167,-0.807469
1.475000,0.618005,-1.118348,1.253118,-1.466006,1.066861,0.529718,0.393525,0.088058,-0.254931,0.316785,-0.320889,0.337307,-0.965549,-0.216058,0.625496,-0.777260,0.787331,-0.827613
1.500000,0.627539,-1.116214,1.246941,-1.458331,1.059086,0.537891,0.369141,0.082602,-0.239134,0.297156,-0.301006,0.316406,-0.984375,-0.220271,0.637692,-0.792415,0.802682,-0.843750
1.525000,0.636458,-1.114219,1.241163,-1.451151,1.051813,0.545536,0.344347,0.077054,-0.223073,0.277197,-0.280789,0.295155,-0.998279,-0.223382,0.646699,-0.803608,0.814020,-0.855668
1.550000,0.644754,-1.112362,1.235789,-1.444473,1.045049,0.552646,0.319270,0.071442,-0.206827,0.257010,-0.260340,0.273660,-1.007016,-0.225337,0.652359,-0.810641,0.821144,-0.863156
1.575000,0.652421,-1.110647,1.230823,-1.438301,1.038797,0.559218,0.294041,0.065797,-0.190484,0.236701,-0.239768,0.252035,-1.010338,-0.226081,0.654511,-0.813315,0.823853,-0.866004
1.600000,0.659456,-1.109072,1.226265,-1.432638,1.033061,0.565248,0.268800,0.060149,-0.174132,0.216382,-0.219186,0.230400,-1.008000,-0.225557,0.652997,-0.811433,0.821947,-0.864000
1.625000,0.665862,-1.107639,1.222115,-1.427481,1.027837,0.570739,0.243690,0.054530,-0.157866,0.196169,-0.198711,0.208878,-0.999756,-0.223713,0.647656,-0.804797,0.815224,-0.856934
1.650000,0.671643,-1.106345,1.218370,-1.422827,1.023123,0.575694,0.218863,0.048974,-0.141783,0.176184,-0.178466,0.187597,-0.985359,-0.220491,0.638330,-0.793208,0.803485,-0.844594
1.675000,0.676809,-1.105189,1.215024,-1.418669,1.018911,0.580122,0.194476,0.043517,-0.125984,0.156552,-0.158580,0.166694,-0.964564,-0.215838,0.624858,-0.776468,0.786528,-0.826770
1.700000,0.681372,-1.104168,1.212068,-1.414996,1.015190,0.584033,0.170691,0.038195,-0.110576,0.137405,-0.139185,0.146306,-0.937125,-0.209698,0.607083,-0.754379,0.764154,-0.803250
1.725000,0.685349,-1.103278,1.209491,-1.411794,1.011946,0.587442,0.147677,0.033045,-0.095667,0.118879,-0.120419,0.126580,-0.902795,-0.202016,0.584843,-0.726744,0.736160,-0.773824
1.750000,0.688763,-1.102514,1.207279,-1.409045,1.009163,0.590369,0.125610,0.028107,-0.081372,0.101116,-0.102426,0.107666,-0.861328,-0.192737,0.557980,-0.693363,0.702347,-0.738281
1.775000,0.691639,-1.101871,1.205416,-1.406730,1.006817,0.592834,0.104672,0.023422,-0.067808,0.084260,-0.085352,0.089719,-0.812479,-0.181806,0.526335,-0.654040,0.662514,-0.696410
1.800000,0.694008,-1.101341,1.203882,-1.404824,1.004886,0.594864,0.085050,0.019031,-0.055097,0.068465,-0.069352,0.072900,-0.756000,-0.169168,0.489747,-0.608575,0.616460,-0.648000
1.825000,0.695904,-1.100916,1.202653,-1.403297,1.003340,0.596490,0.066938,0.014978,-0.043363,0.053884,-0.054583,0.057375,-0.691646,-0.154768,0.448058,-0.556771,0.563985,-0.592840
1.850000,0.697369,-1.100589,1.201704,-1.402118,1.002145,0.597745,0.050535,0.011308,-0.032738,0.040681,-0.041208,0.043316,-0.619172,-0.138550,0.401108,-0.498429,0.504887,-0.530719
1.875000,0.698447,-1.100347,1.201006,-1.401250,1.001266,0.598669,0.036049,0.008067,-0.023353,0.029019,-0.029395,0.030899,-0.538330,-0.120461,0.348738,-0.433352,0.438967,-0.461426
1.900000,0.699189,-1.100181,1.200525,-1.400653,1.000661,0.599305,0.023691,0.005301,-0.015347,0.019071,-0.019318,0.020306,-0.448875,-0.100444,0.290788,-0.361341,0.366023,-0.384750
1.925000,0.699651,-1.100078,1.200226,-1.400281,1.000284,0.599701,0.013679,0.003061,-0.008861,0.011011,-0.011154,0.011725,-0.350561,-0.078444,0.227098,-0.282199,0.285855,-0.300480
1.950000,0.699895,-1.100024,1.200068,-1.400085,1.000086,0.599910,0.006238,0.001396,-0.004041,0.005022,-0.005087,0.005347,-0.243141,-0.054407,0.157510,-0.195727,0.198263,-0.208406
1.975000,0.699987,-1.100003,1.200009,-1.400011,1.000011,0.599988,0.001600,0.000358,-0.001036,0.001288,-0.001305,0.001371,-0.126369,-0.028277,0.081864,-0.101726,0.103044,-0.108316
2.000000,0.700000,-1.100000,1.200000,-1.400000,1.000000,0.600000,-0.000000,0.000000,0.000000,0.000000,0.000000,0.000000,-0.000000,-0.000000,-0.000000,-0.000000,0.000000,0.000000
