ozkannceylan/mujoco-kinematics-lab/lab-2-Ur5e-robotics-lab/docs-turkish/b1_waypoint_traj.csv
time,q1,q2,q3,q4,q5,q6,qd1,qd2,qd3,qd4,qd5,qd6,qdd1,qdd2,qdd3,qdd4,qdd5,qdd6
0.000000,0.000000,-1.256637,1.653470,-1.963495,1.570796,0.000000,0.000000,0.000000,0.000000,0.000000,0.000000,0.000000,0.000000,0.000000,0.000000,0.000000,0.000000,0.000000
0.025000,0.000009,-1.256653,1.653476,-1.963470,1.570796,0.000000,0.001074,-0.001845,0.000787,0.003027,-0.000004,0.000000,0.084494,-0.145060,0.061904,0.238059,-0.000336,0.000000
0.050000,0.000070,-1.256758,1.653521,-1.963297,1.570796,0.000000,0.004153,-0.007130,0.003043,0.011701,-0.000017,0.000000,0.160395,-0.275369,0.117514,0.451909,-0.000639,0.000000
0.075000,0.000232,-1.257035,1.653640,-1.962843,1.570795,0.000000,0.009025,-0.015494,0.006612,0.025428,-0.000036,0.000000,0.228000,-0.391434,0.167044,0.642385,-0.000908,0.000000
0.100000,0.000535,-1.257555,1.653862,-1.961988,1.570794,0.000000,0.015486,-0.026587,0.011346,0.043633,-0.000062,0.000000,0.287605,-0.493764,0.210714,0.810320,-0.001145,0.000000
0.125000,0.001018,-1.258384,1.654215,-1.960628,1.570792,0.000000,0.023341,-0.040072,0.017101,0.065763,-0.000093,0.000000,0.339506,-0.582869,0.248740,0.956551,-0.001352,0.000000
0.150000,0.001712,-1.259576,1.654724,-1.958672,1.570790,0.000000,0.032400,-0.055625,0.023738,0.091286,-0.000129,0.000000,0.384000,-0.659257,0.281338,1.081911,-0.001529,0.000000
0.175000,0.002646,-1.261180,1.655408,-1.956040,1.570786,0.000000,0.042482,-0.072933,0.031124,0.119691,-0.000169,0.000000,0.421383,-0.723436,0.308726,1.187236,-0.001678,0.000000
0.200000,0.003843,-1.263235,1.656286,-1.952667,1.570781,0.000000,0.053412,-0.091699,0.039133,0.150488,-0.000213,0.000000,0.451951,-0.775915,0.331122,1.273360,-0.001800,0.000000
0.225000,0.005322,-1.265775,1.657369,-1.948500,1.570775,0.000000,0.065025,-0.111636,0.047641,0.183206,-0.000259,0.000000,0.476000,-0.817204,0.348742,1.341119,-0.001895,0.000000
0.250000,0.007099,-1.268824,1.658671,-1.943495,1.570768,0.000000,0.077160,-0.132470,0.056532,0.217398,-0.000307,0.000000,0.493827,-0.847810,0.361803,1.391347,-0.001966,0.000000
0.275000,0.009183,-1.272403,1.660198,-1.937621,1.570760,0.000000,0.089667,-0.153942,0.065695,0.252635,-0.000357,0.000000,0.505728,-0.868242,0.370522,1.424878,-0.002014,0.000000
0.300000,0.011584,-1.276525,1.661957,-1.930858,1.570750,0.000000,0.102400,-0.175802,0.075023,0.288510,-0.000408,0.000000,0.512000,-0.879009,0.375117,1.442548,-0.002039,0.000000
0.325000,0.014304,-1.281195,1.663950,-1.923194,1.570739,0.000000,0.115223,-0.197816,0.084418,0.324637,-0.000459,0.000000,0.512938,-0.880620,0.375805,1.445192,-0.002042,0.000000
0.350000,0.017345,-1.286415,1.666177,-1.914627,1.570727,0.000000,0.128005,-0.219761,0.093783,0.360651,-0.000510,0.000000,0.508840,-0.873583,0.372802,1.433644,-0.002026,0.000000
0.375000,0.020703,-1.292180,1.668638,-1.905165,1.570714,0.000000,0.140625,-0.241427,0.103029,0.396208,-0.000560,0.000000,0.500000,-0.858407,0.366325,1.408739,-0.001991,0.000000
0.400000,0.024374,-1.298482,1.671327,-1.894823,1.570699,0.000000,0.152968,-0.262618,0.112072,0.430984,-0.000609,0.000000,0.486716,-0.835601,0.356593,1.371311,-0.001938,0.000000
0.425000,0.028348,-1.305306,1.674239,-1.883625,1.570683,0.000000,0.164926,-0.283148,0.120833,0.464676,-0.000657,0.000000,0.469284,-0.805674,0.343821,1.322197,-0.001869,0.000000
0.450000,0.032616,-1.312633,1.677366,-1.871601,1.570666,0.000000,0.176400,-0.302846,0.129240,0.497003,-0.000702,0.000000,0.448000,-0.769133,0.328228,1.262230,-0.001784,0.000000
0.475000,0.037164,-1.320440,1.680698,-1.858788,1.570648,0.000000,0.187297,-0.321554,0.137223,0.527704,-0.000746,0.000000,0.423160,-0.726488,0.310029,1.192245,-0.001685,0.000000
0.500000,0.041975,-1.328701,1.684223,-1.845231,1.570629,0.000000,0.197531,-0.339124,0.144721,0.556539,-0.000786,0.000000,0.395062,-0.678248,0.289442,1.113077,-0.001573,0.000000
0.525000,0.047034,-1.337386,1.687929,-1.830979,1.570609,0.000000,0.207025,-0.355424,0.151677,0.583288,-0.000824,0.000000,0.364000,-0.624921,0.266685,1.025562,-0.001449,0.000000
0.550000,0.052320,-1.346460,1.691802,-1.816086,1.570588,0.000000,0.215709,-0.370332,0.158039,0.607754,-0.000859,0.000000,0.330272,-0.567015,0.241974,0.930533,-0.001315,0.000000
0.575000,0.057812,-1.355890,1.695826,-1.800611,1.570566,0.000000,0.223519,-0.383740,0.163761,0.629759,-0.000890,0.000000,0.294173,-0.505040,0.215526,0.828825,-0.001171,0.000000
0.600000,0.063488,-1.365634,1.699984,-1.784619,1.570544,0.000000,0.230400,-0.395554,0.168803,0.649147,-0.000917,0.000000,0.256000,-0.439505,0.187559,0.721274,-0.001019,0.000000
0.625000,0.069324,-1.375653,1.704260,-1.768177,1.570520,0.000000,0.236304,-0.405690,0.173128,0.665781,-0.000941,0.000000,0.216049,-0.370917,0.158289,0.608714,-0.000860,0.000000
0.650000,0.075295,-1.385904,1.708635,-1.751354,1.570497,0.000000,0.241190,-0.414079,0.176708,0.679548,-0.000960,0.000000,0.174617,-0.299786,0.127934,0.491980,-0.000695,0.000000
0.675000,0.081375,-1.396342,1.713089,-1.734224,1.570472,0.000000,0.245025,-0.420663,0.179518,0.690352,-0.000976,0.000000,0.132000,-0.226620,0.096710,0.371907,-0.000526,0.000000
0.700000,0.087537,-1.406922,1.717604,-1.716862,1.570448,0.000000,0.247783,-0.425397,0.181538,0.698122,-0.000987,0.000000,0.088494,-0.151928,0.064835,0.249329,-0.000352,0.000000
0.725000,0.093755,-1.417596,1.722159,-1.699344,1.570423,0.000000,0.249445,-0.428250,0.182756,0.702805,-0.000993,0.000000,0.044395,-0.076218,0.032526,0.125082,-0.000177,0.000000
0.750000,0.100000,-1.428319,1.726735,-1.681748,1.570398,0.000000,0.250000,-0.429204,0.183163,0.704369,-0.000995,0.000000,0.000000,0.000000,0.000000,-0.000000,0.000000,0.000000
0.775000,0.106245,-1.439041,1.731311,-1.664152,1.570373,0.000000,0.249445,-0.428250,0.182756,0.702805,-0.000993,0.000000,-0.044395,0.076218,-0.032526,-0.125082,0.000177,0.000000
0.800000,0.112463,-1.449715,1.735866,-1.646633,1.570349,0.000000,0.247783,-0.425397,0.181538,0.698122,-0.000987,0.000000,-0.088494,0.151928,-0.064835,-0.249329,0.000352,0.000000
0.825000,0.118625,-1.460295,1.740381,-1.629271,1.570324,0.000000,0.245025,-0.420663,0.179518,0.690352,-0.000976,0.000000,-0.132000,0.226620,-0.096710,-0.371907,0.000526,0.000000
0.850000,0.124705,-1.470733,1.744835,-1.612141,1.570300,0.000000,0.241190,-0.414079,0.176708,0.679548,-0.000960,0.000000,-0.174617,0.299786,-0.127934,-0.491980,0.000695,0.000000
0.875000,0.130676,-1.480984,1.749210,-1.595318,1.570276,0.000000,0.236304,-0.405690,0.173128,0.665781,-0.000941,0.000000,-0.216049,0.370917,-0.158289,-0.608714,0.000860,0.000000
0.900000,0.136512,-1.491003,1.753485,-1.578876,1.570253,0.000000,0.230400,-0.395554,0.168803,0.649147,-0.000917,0.000000,-0.256000,0.439505,-0.187559,-0.721274,0.001019,0.000000
0.925000,0.142188,-1.500747,1.757644,-1.562884,1.570230,0.000000,0.223519,-0.383740,0.163761,0.629759,-0.000890,0.000000,-0.294173,0.505040,-0.215526,-0.828825,0.001171,0.000000
0.950000,0.147680,-1.510177,1.761668,-1.547410,1.570208,0.000000,0.215709,-0.370332,0.158039,0.607754,-0.000859,0.000000,-0.330272,0.567015,-0.241974,-0.930533,0.001315,0.000000
0.975000,0.152966,-1.519252,1.765541,-1.532517,1.570187,0.000000,0.207025,-0.355424,0.151677,0.583288,-0.000824,0.000000,-0.364000,0.624921,-0.266685,-1.025562,0.001449,0.000000
1.000000,0.158025,-1.527936,1.769247,-1.518264,1.570167,0.000000,0.197531,-0.339124,0.144721,0.556539,-0.000786,0.000000,-0.395062,0.678248,-0.289442,-1.113077,0.001573,0.000000
1.025000,0.162836,-1.536197,1.772772,-1.504707,1.570148,0.000000,0.187297,-0.321554,0.137223,0.527704,-0.000746,0.000000,-0.423160,0.726488,-0.310029,-1.192245,0.001685,0.000000
1.050000,0.167384,-1.544004,1.776104,-1.491895,1.570130,0.000000,0.176400,-0.302846,0.129240,0.497003,-0.000702,0.000000,-0.448000,0.769133,-0.328228,-1.262230,0.001784,0.000000
1.075000,0.171652,-1.551331,1.779231,-1.479871,1.570113,0.000000,0.164926,-0.283148,0.120833,0.464676,-0.000657,0.000000,-0.469284,0.805674,-0.343821,-1.322197,0.001869,0.000000
1.100000,0.175626,-1.558155,1.782143,-1.468672,1.570097,0.000000,0.152968,-0.262618,0.112072,0.430984,-0.000609,0.000000,-0.486716,0.835601,-0.356593,-1.371311,0.001938,0.000000
1.125000,0.179297,-1.564457,1.784832,-1.458331,1.570082,0.000000,0.140625,-0.241427,0.103029,0.396208,-0.000560,0.000000,-0.500000,0.858407,-0.366325,-1.408739,0.001991,0.000000
1.150000,0.182655,-1.570222,1.787292,-1.448869,1.570069,0.000000,0.128005,-0.219761,0.093783,0.360651,-0.000510,0.000000,-0.508840,0.873583,-0.372802,-1.433644,0.002026,0.000000
1.175000,0.185696,-1.575442,1.789520,-1.440302,1.570057,0.000000,0.115223,-0.197816,0.084418,0.324637,-0.000459,0.000000,-0.512938,0.880620,-0.375805,-1.445192,0.002042,0.000000
1.200000,0.188416,-1.580112,1.791513,-1.432638,1.570046,0.000000,0.102400,-0.175802,0.075023,0.288510,-0.000408,0.000000,-0.512000,0.879009,-0.375117,-1.442548,0.002039,0.000000
1.225000,0.190817,-1.584234,1.793272,-1.425874,1.570037,0.000000,0.089667,-0.153942,0.065695,0.252635,-0.000357,0.000000,-0.505728,0.868242,-0.370522,-1.424878,0.002014,0.000000
1.250000,0.192901,-1.587813,1.794799,-1.420001,1.570028,0.000000,0.077160,-0.132470,0.056532,0.217398,-0.000307,0.000000,-0.493827,0.847810,-0.361803,-1.391347,0.001966,0.000000
1.275000,0.194678,-1.590862,1.796101,-1.414996,1.570021,0.000000,0.065025,-0.111636,0.047641,0.183206,-0.000259,0.000000,-0.476000,0.817204,-0.348742,-1.341119,0.001895,0.000000
1.300000,0.196157,-1.593402,1.797184,-1.410828,1.570015,0.000000,0.053412,-0.091699,0.039133,0.150488,-0.000213,0.000000,-0.451951,0.775915,-0.331122,-1.273360,0.001800,0.000000
1.325000,0.197354,-1.595457,1.798061,-1.407455,1.570011,0.000000,0.042482,-0.072933,0.031124,0.119691,-0.000169,0.000000,-0.421383,0.723436,-0.308726,-1.187236,0.001678,0.000000
1.350000,0.198288,-1.597061,1.798746,-1.404824,1.570007,0.000000,0.032400,-0.055625,0.023738,0.091286,-0.000129,0.000000,-0.384000,0.659257,-0.281338,-1.081911,0.001529,0.000000
1.375000,0.198982,-1.598253,1.799254,-1.402867,1.570004,0.000000,0.023341,-0.040072,0.017101,0.065763,-0.000093,0.000000,-0.339506,0.582869,-0.248740,-0.956551,0.001352,0.000000
1.400000,0.199465,-1.599082,1.799608,-1.401507,1.570002,0.000000,0.015486,-0.026587,0.011346,0.043633,-0.000062,0.000000,-0.287605,0.493764,-0.210714,-0.810320,0.001145,0.000000
1.425000,0.199768,-1.599602,1.799830,-1.400653,1.570001,0.000000,0.009025,-0.015494,0.006612,0.025428,-0.000036,0.000000,-0.228000,0.391434,-0.167044,-0.642385,0.000908,0.000000
1.450000,0.199930,-1.599879,1.799948,-1.400198,1.570000,0.000000,0.004153,-0.007130,0.003043,0.011701,-0.000017,0.000000,-0.160395,0.275369,-0.117514,-0.451909,0.000639,0.000000
1.475000,0.199991,-1.599984,1.799993,-1.400025,1.570000,0.000000,0.001074,-0.001845,0.000787,0.003027,-0.000004,0.000000,-0.084494,0.145060,-0.061904,-0.238059,0.000336,0.000000
1.475000,0.200000,-1.600000,1.800000,-1.400000,1.570000,0.000000,0.000000,0.000000,0.000000,0.000000,0.000000,0.000000,0.000000,0.000000,0.000000,0.000000,0.000000,0.000000
1.500000,0.199973,-1.599982,1.799991,-1.399986,1.569988,-0.000032,-0.003223,0.002149,-0.001074,0.001612,-0.001450,-0.003760,-0.253481,0.168988,-0.084494,0.126741,-0.114067,-0.295728
1.525000,0.199789,-1.599859,1.799930,-1.399894,1.569905,-0.000246,-0.012459,0.008306,-0.004153,0.006230,-0.005607,-0.014536,-0.481185,0.320790,-0.160395,0.240593,-0.216533,-0.561383
1.550000,0.199305,-1.599537,1.799768,-1.399653,1.569687,-0.000811,-0.027075,0.018050,-0.009025,0.013537,-0.012184,-0.031587,-0.684000,0.456000,-0.228000,0.342000,-0.307800,-0.798000
1.575000,0.198395,-1.598930,1.799465,-1.399198,1.569278,-0.001872,-0.046459,0.030973,-0.015486,0.023230,-0.020907,-0.054202,-0.862815,0.575210,-0.287605,0.431407,-0.388267,-1.006617
1.600000,0.196947,-1.597965,1.798982,-1.398474,1.568626,-0.003561,-0.070023,0.046682,-0.023341,0.035012,-0.031510,-0.081694,-1.018519,0.679012,-0.339506,0.509259,-0.458333,-1.188272
1.625000,0.194864,-1.596576,1.798288,-1.397432,1.567689,-0.005992,-0.097200,0.064800,-0.032400,0.048600,-0.043740,-0.113400,-1.152000,0.768000,-0.384000,0.576000,-0.518400,-1.344000
1.650000,0.192062,-1.594708,1.797354,-1.396031,1.566428,-0.009261,-0.127445,0.084964,-0.042482,0.063723,-0.057350,-0.148686,-1.264148,0.842765,-0.421383,0.632074,-0.568867,-1.474840
1.675000,0.188471,-1.592314,1.796157,-1.394235,1.564812,-0.013451,-0.160237,0.106825,-0.053412,0.080119,-0.072107,-0.186943,-1.355852,0.903901,-0.451951,0.677926,-0.610133,-1.581827
1.700000,0.184033,-1.589355,1.794678,-1.392016,1.562815,-0.018628,-0.195075,0.130050,-0.065025,0.097537,-0.087784,-0.227587,-1.428000,0.952000,-0.476000,0.714000,-0.642600,-1.666000
1.725000,0.178704,-1.585802,1.792901,-1.389352,1.560417,-0.024846,-0.231481,0.154321,-0.077160,0.115741,-0.104167,-0.270062,-1.481481,0.987654,-0.493827,0.740741,-0.666667,-1.728395
1.750000,0.172450,-1.581633,1.790817,-1.386225,1.557602,-0.032142,-0.269001,0.179334,-0.089667,0.134500,-0.121050,-0.313834,-1.517185,1.011457,-0.505728,0.758593,-0.682733,-1.770049
1.775000,0.165248,-1.576832,1.788416,-1.382624,1.554362,-0.040544,-0.307200,0.204800,-0.102400,0.153600,-0.138240,-0.358400,-1.536000,1.024000,-0.512000,0.768000,-0.691200,-1.792000
1.800000,0.157087,-1.571392,1.785696,-1.378544,1.550689,-0.050065,-0.345668,0.230445,-0.115223,0.172834,-0.155550,-0.403279,-1.538815,1.025877,-0.512938,0.769407,-0.692467,-1.795284
1.825000,0.147966,-1.565310,1.782655,-1.373983,1.546585,-0.060707,-0.384015,0.256010,-0.128005,0.192007,-0.172807,-0.448017,-1.526519,1.017679,-0.508840,0.763259,-0.686933,-1.780938
1.850000,0.137891,-1.558594,1.779297,-1.368945,1.542051,-0.072461,-0.421875,0.281250,-0.140625,0.210937,-0.189844,-0.492187,-1.500000,1.000000,-0.500000,0.750000,-0.675000,-1.750000
1.875000,0.126879,-1.551253,1.775626,-1.363439,1.537095,-0.085308,-0.458904,0.305936,-0.152968,0.229452,-0.206507,-0.535388,-1.460148,0.973432,-0.486716,0.730074,-0.657067,-1.703506
1.900000,0.114955,-1.543303,1.771652,-1.357478,1.531730,-0.099219,-0.494779,0.329852,-0.164926,0.247389,-0.222650,-0.577242,-1.407852,0.938568,-0.469284,0.703926,-0.633533,-1.642494
1.925000,0.102152,-1.534768,1.767384,-1.351076,1.525968,-0.114156,-0.529200,0.352800,-0.176400,0.264600,-0.238140,-0.617400,-1.344000,0.896000,-0.448000,0.672000,-0.604800,-1.568000
1.950000,0.088509,-1.525673,1.762836,-1.344255,1.519829,-0.130072,-0.561890,0.374593,-0.187297,0.280945,-0.252850,-0.655538,-1.269481,0.846321,-0.423160,0.634741,-0.571267,-1.481062
1.975000,0.074074,-1.516049,1.758025,-1.337037,1.513333,-0.146914,-0.592593,0.395062,-0.197531,0.296296,-0.266667,-0.691358,-1.185185,0.790123,-0.395062,0.592593,-0.533333,-1.382716
2.000000,0.058898,-1.505932,1.752966,-1.329449,1.506504,-0.164619,-0.621075,0.414050,-0.207025,0.310537,-0.279484,-0.724587,-1.092000,0.728000,-0.364000,0.546000,-0.491400,-1.274000
2.025000,0.043041,-1.495360,1.747680,-1.321520,1.499368,-0.183119,-0.647126,0.431417,-0.215709,0.323563,-0.291207,-0.754980,-0.990815,0.660543,-0.330272,0.495407,-0.445867,-1.155951
2.050000,0.026564,-1.484376,1.742188,-1.313282,1.491954,-0.202342,-0.670556,0.447038,-0.223519,0.335278,-0.301750,-0.782316,-0.882519,0.588346,-0.294173,0.441259,-0.397133,-1.029605
2.075000,0.009536,-1.473024,1.736512,-1.304768,1.484291,-0.222208,-0.691200,0.460800,-0.230400,0.345600,-0.311040,-0.806400,-0.768000,0.512000,-0.256000,0.384000,-0.345600,-0.896000
2.100000,-0.007972,-1.461352,1.730676,-1.296014,1.476413,-0.242634,-0.708912,0.472608,-0.236304,0.354456,-0.319010,-0.827064,-0.648148,0.432099,-0.216049,0.324074,-0.291667,-0.756173
2.125000,-0.025884,-1.449411,1.724705,-1.287058,1.468352,-0.263532,-0.723570,0.482380,-0.241190,0.361785,-0.325607,-0.844165,-0.523852,0.349235,-0.174617,0.261926,-0.235733,-0.611160
2.150000,-0.044124,-1.437251,1.718625,-1.277938,1.460144,-0.284811,-0.735075,0.490050,-0.245025,0.367537,-0.330784,-0.857587,-0.396000,0.264000,-0.132000,0.198000,-0.178200,-0.462000
2.175000,-0.062611,-1.424926,1.712463,-1.268695,1.451825,-0.306379,-0.743348,0.495565,-0.247783,0.371674,-0.334507,-0.867240,-0.265481,0.176988,-0.088494,0.132741,-0.119467,-0.309728
2.200000,-0.081264,-1.412491,1.706245,-1.259368,1.443431,-0.328141,-0.748334,0.498890,-0.249445,0.374167,-0.336750,-0.873057,-0.133185,0.088790,-0.044395,0.066593,-0.059933,-0.155383
2.225000,-0.100000,-1.400000,1.700000,-1.250000,1.435000,-0.350000,-0.750000,0.500000,-0.250000,0.375000,-0.337500,-0.875000,0.000000,0.000000,-0.000000,0.000000,-0.000000,0.000000
2.250000,-0.118736,-1.387509,1.693755,-1.240632,1.426569,-0.371859,-0.748334,0.498890,-0.249445,0.374167,-0.336750,-0.873057,0.133185,-0.088790,0.044395,-0.066593,0.059933,0.155383
2.275000,-0.137389,-1.375074,1.687537,-1.231305,1.418175,-0.393621,-0.743348,0.495565,-0.247783,0.371674,-0.334507,-0.867240,0.265481,-0.176988,0.088494,-0.132741,0.119467,0.309728
2.300000,-0.155876,-1.362749,1.681375,-1.222062,1.409856,-0.415189,-0.735075,0.490050,-0.245025,0.367537,-0.330784,-0.857587,0.396000,-0.264000,0.132000,-0.198000,0.178200,0.462000
2.325000,-0.174116,-1.350589,1.675295,-1.212942,1.401648,-0.436468,-0.723570,0.482380,-0.241190,0.361785,-0.325607,-0.844165,0.523852,-0.349235,0.174617,-0.261926,0.235733,0.611160
2.350000,-0.192028,-1.338648,1.669324,-1.203986,1.393587,-0.457366,-0.708912,0.472608,-0.236304,0.354456,-0.319010,-0.827064,0.648148,-0.432099,0.216049,-0.324074,0.291667,0.756173
2.375000,-0.209536,-1.326976,1.663488,-1.195232,1.385709,-0.477792,-0.691200,0.460800,-0.230400,0.345600,-0.311040,-0.806400,0.768000,-0.512000,0.256000,-0.384000,0.345600,0.896000
2.400000,-0.226564,-1.315624,1.657812,-1.186718,1.378046,-0.497658,-0.670556,0.447038,-0.223519,0.335278,-0.301750,-0.782316,0.882519,-0.588346,0.294173,-0.441259,0.397133,1.029605
2.425000,-0.243041,-1.304640,1.652320,-1.178480,1.370632,-0.516881,-0.647126,0.431417,-0.215709,0.323563,-0.291207,-0.754980,0.990815,-0.660543,0.330272,-0.495407,0.445867,1.155951
2.450000,-0.258898,-1.294068,1.647034,-1.170551,1.363496,-0.535381,-0.621075,0.414050,-0.207025,0.310537,-0.279484,-0.724587,1.092000,-0.728000,0.364000,-0.546000,0.491400,1.274000
2.475000,-0.274074,-1.283951,1.641975,-1.162963,1.356667,-0.553086,-0.592593,0.395062,-0.197531,0.296296,-0.266667,-0.691358,1.185185,-0.790123,0.395062,-0.592593,0.533333,1.382716
2.500000,-0.288509,-1.274327,1.637164,-1.155745,1.350171,-0.569928,-0.561890,0.374593,-0.187297,0.280945,-0.252850,-0.655538,1.269481,-0.846321,0.423160,-0.634741,0.571267,1.481062
2.525000,-0.302152,-1.265232,1.632616,-1.148924,1.344032,-0.585844,-0.529200,0.352800,-0.176400,0.264600,-0.238140,-0.617400,1.344000,-0.896000,0.448000,-0.672000,0.604800,1.568000
2.550000,-0.314955,-1.256697,1.628348,-1.142522,1.338270,-0.600781,-0.494779,0.329852,-0.164926,0.247389,-0.222650,-0.577242,1.407852,-0.938568,0.469284,-0.703926,0.633533,1.642494
2.575000,-0.326879,-1.248747,1.624374,-1.136561,1.332905,-0.614692,-0.458904,0.305936,-0.152968,0.229452,-0.206507,-0.535388,1.460148,-0.973432,0.486716,-0.730074,0.657067,1.703506
2.600000,-0.337891,-1.241406,1.620703,-1.131055,1.327949,-0.627539,-0.421875,0.281250,-0.140625,0.210937,-0.189844,-0.492187,1.500000,-1.000000,0.500000,-0.750000,0.675000,1.750000
2.625000,-0.347966,-1.234690,1.617345,-1.126017,1.323415,-0.639293,-0.384015,0.256010,-0.128005,0.192007,-0.172807,-0.448017,1.526519,-1.017679,0.508840,-0.763259,0.686933,1.780938
2.650000,-0.357087,-1.228608,1.614304,-1.121456,1.319311,-0.649935,-0.345668,0.230445,-0.115223,0.172834,-0.155550,-0.403279,1.538815,-1.025877,0.512938,-0.769407,0.692467,1.795284
2.675000,-0.365248,-1.223168,1.611584,-1.117376,1.315638,-0.659456,-0.307200,0.204800,-0.102400,0.153600,-0.138240,-0.358400,1.536000,-1.024000,0.512000,-0.768000,0.691200,1.792000
2.700000,-0.372450,-1.218367,1.609183,-1.113775,1.312398,-0.667858,-0.269001,0.179334,-0.089667,0.134500,-0.121050,-0.313834,1.517185,-1.011457,0.505728,-0.758593,0.682733,1.770049
2.725000,-0.378704,-1.214198,1.607099,-1.110648,1.309583,-0.675154,-0.231481,0.154321,-0.077160,0.115741,-0.104167,-0.270062,1.481481,-0.987654,0.493827,-0.740741,0.666667,1.728395
2.750000,-0.384033,-1.210645,1.605322,-1.107984,1.307185,-0.681372,-0.195075,0.130050,-0.065025,0.097537,-0.087784,-0.227588,1.428000,-0.952000,0.476000,-0.714000,0.642600,1.666000
2.775000,-0.388471,-1.207686,1.603843,-1.105765,1.305188,-0.686549,-0.160237,0.106825,-0.053412,0.080119,-0.072107,-0.186943,1.355852,-0.903901,0.451951,-0.677926,0.610133,1.581827
2.800000,-0.392062,-1.205292,1.602646,-1.103969,1.303572,-0.690739,-0.127445,0.084964,-0.042482,0.063723,-0.057350,-0.148686,1.264148,-0.842765,0.421383,-0.632074,0.568867,1.474840
2.825000,-0.394864,-1.203424,1.601712,-1.102568,1.302311,-0.694008,-0.097200,0.064800,-0.032400,0.048600,-0.043740,-0.113400,1.152000,-0.768000,0.384000,-0.576000,0.518400,1.344000
2.850000,-0.396947,-1.202035,1.601018,-1.101526,1.301374,-0.696439,-0.070023,0.046682,-0.023341,0.035012,-0.031510,-0.081694,1.018519,-0.679012,0.339506,-0.509259,0.458333,1.188272
2.875000,-0.398395,-1.201070,1.600535,-1.100802,1.300722,-0.698128,-0.046459,0.030973,-0.015486,0.023230,-0.020907,-0.054202,0.862815,-0.575210,0.287605,-0.431407,0.388267,1.006617
2.900000,-0.399305,-1.200463,1.600232,-1.100347,1.300313,-0.699189,-0.027075,0.018050,-0.009025,0.013537,-0.012184,-0.031588,0.684000,-0.456000,0.228000,-0.342000,0.307800,0.798000
2.925000,-0.399789,-1.200141,1.600070,-1.100106,1.300095,-0.699754,-0.012459,0.008306,-0.004153,0.006230,-0.005607,-0.014536,0.481185,-0.320790,0.160395,-0.240593,0.216533,0.561383
2.950000,-0.399973,-1.200018,1.600009,-1.100014,1.300012,-0.699968,-0.003223,0.002149,-0.001074,0.001612,-0.001450,-0.003760,0.253481,-0.168988,0.084494,-0.126741,0.114067,0.295728
2.950000,-0.400000,-1.200000,1.600000,-1.100000,1.300000,-0.700000,0.000000,0.000000,0.000000,0.000000,0.000000,0.000000,0.000000,0.000000,0.000000,0.000000,0.000000,0.000000
2.975000,-0.399950,-1.199995,1.599982,-1.100014,1.299986,-0.699941,0.005909,0.000537,-0.002149,-0.001612,-0.001612,0.006983,0.464716,0.042247,-0.168988,-0.126741,-0.126741,0.549210
3.000000,-0.399613,-1.199965,1.599859,-1.100106,1.299894,-0.699542,0.022842,0.002077,-0.008306,-0.006230,-0.006230,0.026995,0.882173,0.080198,-0.320790,-0.240593,-0.240593,1.042568
3.025000,-0.398726,-1.199884,1.599537,-1.100347,1.299653,-0.698494,0.049637,0.004512,-0.018050,-0.013537,-0.013538,0.058662,1.254000,0.114000,-0.456000,-0.342000,-0.342000,1.482000
3.050000,-0.397058,-1.199733,1.598930,-1.100802,1.299198,-0.696523,0.085175,0.007743,-0.030973,-0.023230,-0.023230,0.100662,1.581827,0.143802,-0.575210,-0.431407,-0.431407,1.869432
3.075000,-0.394403,-1.199491,1.597965,-1.101526,1.298474,-0.693386,0.128376,0.011671,-0.046682,-0.035012,-0.035012,0.151717,1.867284,0.169753,-0.679012,-0.509259,-0.509259,2.206790
3.100000,-0.390584,-1.199144,1.596576,-1.102568,1.297432,-0.688872,0.178200,0.016200,-0.064800,-0.048600,-0.048600,0.210600,2.112000,0.192000,-0.768000,-0.576000,-0.576000,2.496000
3.125000,-0.385447,-1.198677,1.594708,-1.103969,1.296031,-0.682801,0.233650,0.021241,-0.084964,-0.063723,-0.063723,0.276132,2.317605,0.210691,-0.842765,-0.632074,-0.632074,2.738988
3.150000,-0.378863,-1.198078,1.592314,-1.105765,1.294235,-0.675019,0.293768,0.026706,-0.106825,-0.080119,-0.080119,0.347180,2.485728,0.225975,-0.903901,-0.677926,-0.677926,2.937679
3.175000,-0.370727,-1.197339,1.589355,-1.107984,1.292016,-0.665405,0.357637,0.032512,-0.130050,-0.097537,-0.097538,0.422662,2.618000,0.238000,-0.952000,-0.714000,-0.714000,3.094000
3.200000,-0.360957,-1.196451,1.585802,-1.110648,1.289352,-0.653858,0.424383,0.038580,-0.154321,-0.115741,-0.115741,0.501543,2.716049,0.246914,-0.987654,-0.740741,-0.740741,3.209877
3.225000,-0.349491,-1.195408,1.581633,-1.113775,1.286225,-0.640307,0.493168,0.044833,-0.179334,-0.134500,-0.134500,0.582835,2.781506,0.252864,-1.011457,-0.758593,-0.758593,3.287235
3.250000,-0.336288,-1.194208,1.576832,-1.117376,1.282624,-0.624704,0.563200,0.051200,-0.204800,-0.153600,-0.153600,0.665600,2.816000,0.256000,-1.024000,-0.768000,-0.768000,3.328000
3.275000,-0.321327,-1.192848,1.571392,-1.121456,1.278544,-0.607022,0.633724,0.057611,-0.230445,-0.172834,-0.172834,0.748946,2.821160,0.256469,-1.025877,-0.769407,-0.769407,3.334099
3.300000,-0.304604,-1.191328,1.565310,-1.126017,1.273983,-0.587259,0.704027,0.064002,-0.256010,-0.192007,-0.192007,0.832032,2.798617,0.254420,-1.017679,-0.763259,-0.763259,3.307457
3.325000,-0.286133,-1.189648,1.558594,-1.131055,1.268945,-0.565430,0.773437,0.070312,-0.281250,-0.210937,-0.210938,0.914062,2.750000,0.250000,-1.000000,-0.750000,-0.750000,3.250000
3.350000,-0.265944,-1.187813,1.551253,-1.136561,1.263439,-0.541571,0.841323,0.076484,-0.305936,-0.229452,-0.229452,0.994291,2.676938,0.243358,-0.973432,-0.730074,-0.730074,3.163654
3.375000,-0.244084,-1.185826,1.543303,-1.142522,1.257478,-0.515736,0.907094,0.082463,-0.329852,-0.247389,-0.247389,1.072021,2.581062,0.234642,-0.938568,-0.703926,-0.703926,3.050346
3.400000,-0.220612,-1.183692,1.534768,-1.148924,1.251076,-0.487996,0.970200,0.088200,-0.352800,-0.264600,-0.264600,1.146600,2.464000,0.224000,-0.896000,-0.672000,-0.672000,2.912000
3.425000,-0.195601,-1.181418,1.525673,-1.155745,1.244255,-0.458437,1.030131,0.093648,-0.374593,-0.280945,-0.280945,1.217428,2.327383,0.211580,-0.846321,-0.634741,-0.634741,2.750543
3.450000,-0.169136,-1.179012,1.516049,-1.162963,1.237037,-0.427160,1.086420,0.098765,-0.395062,-0.296296,-0.296296,1.283951,2.172840,0.197531,-0.790123,-0.592593,-0.592593,2.567901
3.475000,-0.141314,-1.176483,1.505932,-1.170551,1.229449,-0.394280,1.138637,0.103512,-0.414050,-0.310537,-0.310537,1.345662,2.002000,0.182000,-0.728000,-0.546000,-0.546000,2.366000
3.500000,-0.112241,-1.173840,1.495360,-1.178480,1.221520,-0.359921,1.186398,0.107854,-0.431417,-0.323563,-0.323563,1.402106,1.816494,0.165136,-0.660543,-0.495407,-0.495407,2.146765
3.525000,-0.082034,-1.171094,1.484376,-1.186718,1.213282,-0.324222,1.229354,0.111759,-0.447038,-0.335278,-0.335278,1.452872,1.617951,0.147086,-0.588346,-0.441259,-0.441259,1.912123
3.550000,-0.050816,-1.168256,1.473024,-1.195232,1.204768,-0.287328,1.267200,0.115200,-0.460800,-0.345600,-0.345600,1.497600,1.408000,0.128000,-0.512000,-0.384000,-0.384000,1.664000
3.575000,-0.018719,-1.165338,1.461352,-1.203986,1.196014,-0.249395,1.299672,0.118152,-0.472608,-0.354456,-0.354456,1.535976,1.188272,0.108025,-0.432099,-0.324074,-0.324074,1.404321
3.600000,0.014121,-1.162353,1.449411,-1.212942,1.187058,-0.210584,1.326546,0.120595,-0.482380,-0.361785,-0.361785,1.567736,0.960395,0.087309,-0.349235,-0.261926,-0.261926,1.135012
3.625000,0.047560,-1.159313,1.437251,-1.222062,1.177938,-0.171065,1.347638,0.122512,-0.490050,-0.367537,-0.367538,1.592662,0.726000,0.066000,-0.264000,-0.198000,-0.198000,0.858000
3.650000,0.081453,-1.156232,1.424926,-1.231305,1.168695,-0.131010,1.362805,0.123891,-0.495565,-0.371674,-0.371674,1.610588,0.486716,0.044247,-0.176988,-0.132741,-0.132741,0.575210
3.675000,0.115650,-1.153123,1.412491,-1.240632,1.159368,-0.090595,1.371946,0.124722,-0.498890,-0.374167,-0.374167,1.621391,0.244173,0.022198,-0.088790,-0.066593,-0.066593,0.288568
3.700000,0.150000,-1.150000,1.400000,-1.250000,1.150000,-0.050000,1.375000,0.125000,-0.500000,-0.375000,-0.375000,1.625000,0.000000,0.000000,-0.000000,0.000000,0.000000,-0.000000
3.725000,0.184350,-1.146877,1.387509,-1.259368,1.140632,-0.009405,1.371946,0.124722,-0.498890,-0.374167,-0.374167,1.621391,-0.244173,-0.022198,0.088790,0.066593,0.066593,-0.288568
3.750000,0.218547,-1.143768,1.375074,-1.268695,1.131305,0.031010,1.362805,0.123891,-0.495565,-0.371674,-0.371674,1.610588,-0.486716,-0.044247,0.176988,0.132741,0.132741,-0.575210
3.775000,0.252440,-1.140687,1.362749,-1.277938,1.122062,0.071065,1.347637,0.122512,-0.490050,-0.367537,-0.367537,1.592662,-0.726000,-0.066000,0.264000,0.198000,0.198000,-0.858000
3.800000,0.285879,-1.137647,1.350589,-1.287058,1.112942,0.110584,1.326546,0.120595,-0.482380,-0.361785,-0.361785,1.567736,-0.960395,-0.087309,0.349235,0.261926,0.261926,-1.135012
3.825000,0.318719,-1.134662,1.338648,-1.296014,1.103986,0.149395,1.299672,0.118152,-0.472608,-0.354456,-0.354456,1.535976,-1.188272,-0.108025,0.432099,0.324074,0.324074,-1.404321
3.850000,0.350816,-1.131744,1.326976,-1.304768,1.095232,0.187328,1.267200,0.115200,-0.460800,-0.345600,-0.345600,1.497600,-1.408000,-0.128000,0.512000,0.384000,0.384000,-1.664000
3.875000,0.382034,-1.128906,1.315624,-1.313282,1.086718,0.224222,1.229354,0.111759,-0.447038,-0.335278,-0.335278,1.452872,-1.617951,-0.147086,0.588346,0.441259,0.441259,-1.912123
3.900000,0.412241,-1.126160,1.304640,-1.321520,1.078480,0.259921,1.186398,0.107854,-0.431417,-0.323563,-0.323563,1.402106,-1.816494,-0.165136,0.660543,0.495407,0.495407,-2.146765
3.925000,0.441314,-1.123517,1.294068,-1.329449,1.070551,0.294280,1.138637,0.103512,-0.414050,-0.310537,-0.310537,1.345663,-2.002000,-0.182000,0.728000,0.546000,0.546000,-2.366000
3.950000,0.469136,-1.120988,1.283951,-1.337037,1.062963,0.327160,1.086420,0.098765,-0.395062,-0.296296,-0.296296,1.283951,-2.172840,-0.197531,0.790123,0.592593,0.592593,-2.567901
3.975000,0.495601,-1.118582,1.274327,-1.344255,1.055745,0.358437,1.030131,0.093648,-0.374593,-0.280945,-0.280945,1.217428,-2.327383,-0.211580,0.846321,0.634741,0.634741,-2.750543
4.000000,0.520612,-1.116308,1.265232,-1.351076,1.048924,0.387996,0.970200,0.088200,-0.352800,-0.264600,-0.264600,1.146600,-2.464000,-0.224000,0.896000,0.672000,0.672000,-2.912000
4.025000,0.544084,-1.114174,1.256697,-1.357478,1.042522,0.415736,0.907094,0.082463,-0.329852,-0.247389,-0.247389,1.072021,-2.581062,-0.234642,0.938568,0.703926,0.703926,-3.050346
4.050000,0.565944,-1.112187,1.248747,-1.363439,1.036561,0.441571,0.841323,0.076484,-0.305936,-0.229452,-0.229452,0.994291,-2.676938,-0.243358,0.973432,0.730074,0.730074,-3.163654
4.075000,0.586133,-1.110352,1.241406,-1.368945,1.031055,0.465430,0.773437,0.070312,-0.281250,-0.210937,-0.210937,0.914063,-2.750000,-0.250000,1.000000,0.750000,0.750000,-3.250000
4.100000,0.604604,-1.108672,1.234690,-1.373983,1.026017,0.487259,0.704027,0.064002,-0.256010,-0.192007,-0.192007,0.832032,-2.798617,-0.254420,1.017679,0.763259,0.763259,-3.307457
4.125000,0.621327,-1.107152,1.228608,-1.378544,1.021456,0.507022,0.633724,0.057611,-0.230445,-0.172834,-0.172834,0.748946,-2.821160,-0.256469,1.025877,0.769407,0.769407,-3.334099
4.150000,0.636288,-1.105792,1.223168,-1.382624,1.017376,0.524704,0.563200,0.051200,-0.204800,-0.153600,-0.153600,0.665600,-2.816000,-0.256000,1.024000,0.768000,0.768000,-3.328000
4.175000,0.649491,-1.104592,1.218367,-1.386225,1.013775,0.540307,0.493168,0.044833,-0.179334,-0.134500,-0.134500,0.582835,-2.781506,-0.252864,1.011457,0.758593,0.758593,-3.287235
4.200000,0.660957,-1.103549,1.214198,-1.389352,1.010648,0.553858,0.424383,0.038580,-0.154321,-0.115741,-0.115741,0.501543,-2.716049,-0.246914,0.987654,0.740741,0.740741,-3.209877
4.225000,0.670727,-1.102661,1.210645,-1.392016,1.007984,0.565405,0.357638,0.032513,-0.130050,-0.097537,-0.097537,0.422663,-2.618000,-0.238000,0.952000,0.714000,0.714000,-3.094000
4.250000,0.678863,-1.101922,1.207686,-1.394235,1.005765,0.575019,0.293768,0.026706,-0.106825,-0.080119,-0.080119,0.347180,-2.485728,-0.225975,0.903901,0.677926,0.677926,-2.937679
4.275000,0.685447,-1.101323,1.205292,-1.396031,1.003969,0.582801,0.233650,0.021241,-0.084964,-0.063723,-0.063723,0.276132,-2.317605,-0.210691,0.842765,0.632074,0.632074,-2.738988
4.300000,0.690584,-1.100856,1.203424,-1.397432,1.002568,0.588872,0.178200,0.016200,-0.064800,-0.048600,-0.048600,0.210600,-2.112000,-0.192000,0.768000,0.576000,0.576000,-2.496000
4.325000,0.694403,-1.100509,1.202035,-1.398474,1.001526,0.593386,0.128376,0.011671,-0.046682,-0.035012,-0.035012,0.151717,-1.867284,-0.169753,0.679012,0.509259,0.509259,-2.206790
4.350000,0.697058,-1.100267,1.201070,-1.399198,1.000802,0.596523,0.085175,0.007743,-0.030973,-0.023230,-0.023230,0.100662,-1.581827,-0.143802,0.575210,0.431407,0.431407,-1.869432
4.375000,0.698726,-1.100116,1.200463,-1.399653,1.000347,0.598494,0.049638,0.004513,-0.018050,-0.013537,-0.013537,0.058663,-1.254000,-0.114000,0.456000,0.342000,0.342000,-1.482000
4.400000,0.699613,-1.100035,1.200141,-1.399894,1.000106,0.599542,0.022842,0.002077,-0.008306,-0.006230,-0.006230,0.026995,-0.882173,-0.080198,0.320790,0.240593,0.240593,-1.042568
4.425000,0.699950,-1.100005,1.200018,-1.399986,1.000014,0.599941,0.005909,0.000537,-0.002149,-0.001612,-0.001612,0.006983,-0.464716,-0.042247,0.168988,0.126741,0.126741,-0.549210
5.925000,0.700000,-1.100000,1.200000,-1.400000,1.000000,0.600000,0.000000,0.000000,0.000000,0.000000,0.000000,0.000000,0.000000,0.000000,0.000000,0.000000,0.000000,0.000000
